X:1
T:Tübingen, 87.87 D
T:Tübingen, 87.87 D
T:Alonzo Judson Abbey, 1872
T:Public Domain Courtesy of the Cyber Hymnal™
C:Alonzo Judson Abbey, 1872
Z:Public Domain
Z:Courtesy of the Cyber Hymnal™
%%score ( 1 2 ) ( 3 4 )
L:1/8
Q:1/4=108
M:9/8
K:G
V:1 treble 
V:2 treble 
V:3 bass 
V:4 bass 
V:1
 ([DB][^C^A])[DB] | [Ec]3 [DB]3 [Ge]2 [Gd] | [Fd]3 [Ac]3 ([FA][^E^G])[FA] | %3
 [Fd]3 [Fc]3 ([Ac][GB])[FA] | [GB]3- [GB]2 z ([DB][^C^A])[DB] | [Ec]3 [DB]3 [Ge]2 [Gd] | %6
 [Fd]3 [Ac]3 [GB]2 [GB] | [FA]3 (Ad)[Af] [Ge]2 [Af] | [Fd]3- [Fd]2 z [Fd]2 [Fd] | %9
 [Gd]3- [Gd]2 [A^d] [Ge]2 [B=d] | (d2 c) [Ac]3 [Ac]2 [Ac] | ([Ac]3 [Ac][GB])[Ac] [Bd]2 [FA] | %12
 [GB]3- [GB]2 z [GB]2 [Ac] | [Bd]3- [Bd]2 [GB] [Gc]2 [Gd] |!>(! [Ge]3 [Gd]3!>)! [DG]2 [EA] | %15
 [GB]3 [Gc]3 [GB]2 [FA] | G3- G2 z |] %17
V:2
 x3 | x9 | x9 | x9 | x9 | x9 | x9 | x3 F2 x4 | x9 | x9 | A3 x6 | x9 | x9 | x9 | x9 | x9 | %16
 G3- G2 x |] %17
V:3
 G,2 G, | G,3 G,3 [G,C]2 [G,B,] | [D,A,]3 [D,D]3 [D,D]2 [D,D] | [D,A,]3 [D,A,]3 [D,D]2 [D,D] | %4
 [G,D]3- [G,D]2 z G,2 G, | G,3 G,3 [G,C]2 [G,B,] | [D,A,]3 [D,D]3 [G,D]2 [G,D] | %7
 [A,D]3- [A,D]2 [A,D] [A,,^C]2 [A,,C] | [D,D]3- [D,D]2 z [D,C]2 [D,C] | %9
 [G,B,]3- [G,B,]2 [F,B,] [E,B,]2 [E,E] | [A,E]3 [A,E]3 [A,E]2 [A,E] | %11
 [D,D]3- [D,D]2 [D,D] [D,D]2 [D,D] | [G,D]3- [G,D]2 z [G,D]2 [G,D] | %13
 [G,D]3- [G,D]2 [=F,D] [E,C]2 [D,B,] |!>(! [C,C]3 [G,B,]3!>)! [G,B,]2 [G,C] | %15
 [G,D]3 [C,E]3 [D,D]2 [D,C] | [G,,B,]3- [G,,B,]2 z |] %17
V:4
 G,2 G, | G,3 G,3 x3 | x9 | x9 | x6 G,2 G, | G,3 G,3 x3 | x9 | x9 | x9 | x9 | x9 | x9 | x9 | x9 | %14
 x9 | x9 | x6 |] %17

